X: 2207
T: Autograph, The
R: hornpipe
M: 4/4
K: Gmajor
|:D2|GdBG FdAF|GB ~d2dDEF|GdBG FdAF|GB ~d2d2^d2|
(3efg ce dg Bd|ce A^A (3BdB G^G|(3ABc (3BAG (3FGA (3DEF|(3GBc (3def g2:|
|:^G2|(3AcA FA DFAd|BGDB (3gfe (3dcB|Ac FA DFAd|BGDG (3gfe (3dcB|
ec (3ecG EG (3ceg|dB (3GBG DG (3Bdg|ec (3AAG DBAF|1 G2 g2 G2:|2 G2g2G4||

